build/img/icons/temp.svg

<svg width="41" height="42" viewBox="0 0 41 42" fill="none" xmlns="http://www.w3.org/2000/svg">
<path fill-rule="evenodd" clip-rule="evenodd" d="M40.7002 6.17963L38.8329 7.40436L40.7054 8.62132C41.0043 8.81552 41.09 9.21686 40.8961 9.51657C40.7028 9.81628 40.3033 9.90237 40.005 9.70818L38.2942 8.59608V10.6429C38.2942 11.0002 38.0055 11.2902 37.6499 11.2902C37.2935 11.2902 37.0055 11.0002 37.0055 10.6429V8.60191L35.3044 9.71789C35.0055 9.91856 34.6066 9.83441 34.412 9.53016C34.2168 9.2324 34.3012 8.83106 34.5989 8.63686L36.4675 7.41342L34.5944 6.19646C34.2954 6.00226 34.2097 5.60092 34.4036 5.30316C34.5969 5.00539 34.9964 4.92124 35.2948 5.11543L37.0055 6.21588V4.1697C37.0055 3.81237 37.2935 3.52237 37.6499 3.52237C38.0055 3.52237 38.2942 3.81237 38.2942 4.1697V6.2107L39.9953 5.09537C40.2943 4.89987 40.6931 4.98403 40.8877 5.28309C41.0823 5.58345 40.9985 5.98478 40.7009 6.17963H40.7002ZM34.4281 19.7054C34.4281 19.3481 34.7161 19.0581 35.0725 19.0581C35.4281 19.0581 35.7168 19.3481 35.7168 19.7054V21.1185L36.905 20.3624C37.2059 20.1715 37.6041 20.2608 37.7942 20.5631C37.9849 20.8654 37.8954 21.2648 37.5944 21.4564L36.2697 22.2992L37.588 23.1511C37.8876 23.3453 37.9746 23.7453 37.7813 24.0444C37.5893 24.3461 37.1904 24.4328 36.8908 24.2399L35.7168 23.4806V24.884C35.7168 25.242 35.4281 25.5313 35.0725 25.5313C34.7161 25.5313 34.4281 25.242 34.4281 24.884V23.4702L33.2393 24.2263C32.939 24.4186 32.5408 24.3286 32.3501 24.0256C32.16 23.724 32.2496 23.3246 32.5498 23.1323L33.8753 22.2908L32.5563 21.4376C32.2573 21.2434 32.1697 20.8434 32.363 20.543C32.5563 20.2427 32.9545 20.1547 33.2541 20.3488L34.4281 21.1082V19.7054ZM30.8842 15.1742C30.3507 15.1742 29.9177 14.7405 29.9177 14.2032C29.9177 13.6672 30.3507 13.2322 30.8842 13.2322C31.4177 13.2322 31.8507 13.6672 31.8507 14.2032C31.8507 14.7405 31.419 15.1742 30.8842 15.1742ZM20.8968 41.7143C16.2704 41.7143 12.5203 37.9469 12.5203 33.2992C12.5203 30.3254 14.0667 27.7296 16.3864 26.2343V4.1697H16.4508C16.7665 1.97657 18.6268 0.285767 20.8968 0.285767C23.1668 0.285767 25.0271 1.97657 25.3428 4.1697H25.4072V26.2336C27.7269 27.729 29.2733 30.3247 29.2733 33.2985C29.2733 37.9463 25.5232 41.7137 20.8968 41.7137V41.7143ZM24.7629 27.3354V26.8259H24.1185V22.942H22.8298C22.4735 22.942 22.1855 22.6527 22.1855 22.2947C22.1855 21.9367 22.4735 21.6474 22.8298 21.6474H24.1185V19.0581H22.8298C22.4735 19.0581 22.1855 18.7687 22.1855 18.4108C22.1855 18.0534 22.4735 17.7634 22.8298 17.7634H24.1185V15.1742H22.8298C22.4735 15.1742 22.1855 14.8842 22.1855 14.5268C22.1855 14.1695 22.4735 13.8795 22.8298 13.8795H24.1185V11.2902H22.8298C22.4735 11.2902 22.1855 11.0002 22.1855 10.6429C22.1855 10.2856 22.4735 9.99559 22.8298 9.99559H24.1185V7.4063H22.8298C22.4735 7.4063 22.1855 7.11695 22.1855 6.75898C22.1855 6.40166 22.4735 6.11166 22.8298 6.11166H24.1185V4.81702C24.1185 3.03041 22.6765 1.58041 20.8968 1.58041C19.1171 1.58041 17.675 3.03041 17.675 4.81702V6.11166H18.9637C19.3194 6.11166 19.6081 6.40166 19.6081 6.75898C19.6081 7.11695 19.3194 7.4063 18.9637 7.4063H17.675V9.99559H18.9637C19.3194 9.99559 19.6081 10.2856 19.6081 10.6429C19.6081 11.0002 19.3194 11.2902 18.9637 11.2902H17.675V13.8795H18.9637C19.3194 13.8795 19.6081 14.1695 19.6081 14.5268C19.6081 14.8842 19.3194 15.1742 18.9637 15.1742H17.675V17.7634H18.9637C19.3194 17.7634 19.6081 18.0534 19.6081 18.4108C19.6081 18.7687 19.3194 19.0581 18.9637 19.0581H17.675V21.6474H18.9637C19.3194 21.6474 19.6081 21.9367 19.6081 22.2947C19.6081 22.6527 19.3194 22.942 18.9637 22.942H17.675V27.4733H16.8464C15.0152 28.7601 13.809 30.8834 13.809 33.2992C13.809 37.2323 16.9824 40.4197 20.8968 40.4197C24.8112 40.4197 27.9846 37.2323 27.9846 33.2992C27.9846 30.8005 26.7011 28.6061 24.7629 27.3354ZM20.8968 37.1831C18.7621 37.1831 17.0307 35.4444 17.0307 33.2992C17.0307 31.8621 17.8091 30.616 18.9637 29.9473V26.8259C18.9637 25.754 19.8291 24.884 20.8968 24.884C21.9638 24.884 22.8298 25.754 22.8298 26.8259V29.9473C23.9845 30.616 24.7629 31.8634 24.7629 33.2992C24.7629 35.4444 23.0322 37.1831 20.8968 37.1831ZM21.5411 30.8024V26.8259C21.5411 26.468 21.2525 26.1786 20.8968 26.1786C20.5405 26.1786 20.2524 26.468 20.2524 26.8259V30.8024C19.1422 31.0905 18.3194 32.0945 18.3194 33.2992C18.3194 34.7297 19.4728 35.8884 20.8968 35.8884C22.3208 35.8884 23.4742 34.7297 23.4742 33.2992C23.4742 32.0951 22.6514 31.0905 21.5411 30.8024ZM11.7573 10.305C11.4249 10.7886 10.8617 10.483 10.8617 10.483L9.79982 9.82016L9.86425 10.0985C9.94157 10.4481 9.7225 10.7911 9.37584 10.8688C9.02918 10.9465 8.68445 10.7264 8.60648 10.3769L8.26498 8.84918L7.29523 8.2407C7.1277 8.37664 6.9344 8.48668 6.72821 8.56436V9.71012L7.80427 10.7717C8.07489 11.0307 8.07489 11.4579 7.80427 11.7233C7.53364 11.9887 7.10837 11.9835 6.83775 11.7233L6.72821 11.6132V12.5972C6.72821 12.5972 6.68955 13.2186 6.08386 13.2186C5.47817 13.2186 5.43951 12.6036 5.43951 12.6036V11.6139L5.31064 11.7421C5.04646 12.0049 4.61474 12.0049 4.34411 11.7421C4.07993 11.4792 4.07993 11.0527 4.34411 10.7892L5.44595 9.70818V8.58313C5.2462 8.51193 5.05934 8.40836 4.89825 8.27695L3.84732 8.94693L3.50195 10.2934C3.40852 10.6584 3.0406 10.8714 2.68105 10.7711C2.34986 10.6785 2.15268 10.3523 2.19263 10.0176L1.35691 10.5575C1.35691 10.5575 0.798907 10.8714 0.458691 10.393C0.117186 9.91403 0.632665 9.53728 0.632665 9.53728L1.88915 8.72425L1.43166 8.59608C1.07082 8.4951 0.858187 8.119 0.948396 7.75456C1.04505 7.39206 1.41233 7.17845 1.77316 7.27878L3.4227 7.73838L4.21525 7.2257C4.18303 7.07682 4.15725 6.92146 4.15725 6.75963C4.15725 6.61074 4.18174 6.46833 4.21396 6.32592L3.38275 5.80807L1.82407 6.17639C1.46323 6.26054 1.1024 6.03398 1.02507 5.67148C0.945819 5.30639 1.17714 4.93871 1.54055 4.85327L1.75705 4.80148L0.597226 4.07648C0.597226 4.07648 0.0521071 3.73081 0.403922 3.22202C0.753803 2.71063 1.29957 3.04271 1.29957 3.04271L2.38465 3.71657L2.34599 3.5392C2.26738 3.17023 2.49934 2.80255 2.8634 2.71711C3.22681 2.63295 3.58507 2.85952 3.66433 3.22655L3.98264 4.71345L4.85895 5.26043C5.02777 5.12126 5.21979 5.01057 5.4292 4.93483V3.7567L4.44334 2.76501C4.19076 2.51255 4.19076 2.1028 4.44334 1.8497C4.69464 1.5953 5.10187 1.5953 5.35381 1.8497L5.42791 1.92478V0.903311C5.42791 0.903311 5.43564 0.285767 6.07677 0.285767C6.7179 0.285767 6.7237 0.902017 6.7237 0.902017V1.92673L6.79908 1.85034C7.05682 1.59789 7.46276 1.59789 7.71406 1.85034C7.96536 2.1028 7.96536 2.51255 7.71406 2.76566L6.72821 3.76253V4.94066C6.92795 5.01186 7.11481 5.11543 7.2759 5.25137L8.44217 4.494L8.74502 3.36766C8.84167 3.02458 9.18962 2.81744 9.53757 2.91454C9.80819 2.99222 9.98861 3.22525 10.0079 3.49713L10.8134 2.97927C10.8134 2.97927 11.3546 2.64266 11.7155 3.14757C12.0724 3.65249 11.5415 4.00204 11.5415 4.00204L10.2399 4.84356L10.7187 4.97302C11.0634 5.06624 11.2664 5.41967 11.1749 5.76664C11.0846 6.11166 10.7303 6.31686 10.3875 6.22365L8.77659 5.788H8.77337L7.96149 6.31233C7.99693 6.46316 8.02206 6.61657 8.02206 6.7784C8.02206 6.92858 8.00273 7.07358 7.97051 7.21405L9.09812 7.9151L10.3675 7.63028C10.7154 7.5526 11.0569 7.76945 11.1343 8.11771C11.2116 8.46079 10.9951 8.80387 10.6529 8.88802L11.5808 9.46414C11.5808 9.46414 12.0995 9.83311 11.7677 10.3186L11.7573 10.305ZM6.07677 6.11166C5.72044 6.11166 5.43242 6.40166 5.43242 6.75898C5.43242 7.11695 5.72044 7.4063 6.07677 7.4063C6.43245 7.4063 6.72112 7.11695 6.72112 6.75898C6.72112 6.40166 6.43245 6.11166 6.07677 6.11166ZM2.18683 25.363C2.38014 25.0633 2.77964 24.9772 3.07797 25.172L4.78807 26.2835V24.2367C4.78807 23.8787 5.0761 23.5893 5.43242 23.5893C5.7881 23.5893 6.07677 23.8787 6.07677 24.2367V26.2783L7.77785 25.1617C8.07683 24.961 8.47568 25.0452 8.67027 25.3494C8.86487 25.6536 8.7811 26.0485 8.48341 26.2427L6.6148 27.4661L8.48792 28.6831C8.7869 28.8773 8.87195 29.2786 8.67865 29.5764C8.48534 29.8742 8.08585 29.9583 7.78752 29.7641L6.07677 28.6579V30.7099C6.07677 31.0678 5.7881 31.3572 5.43242 31.3572C5.0761 31.3572 4.78807 31.0678 4.78807 30.7099V28.6695L3.08699 29.7842C2.78866 29.9784 2.3898 29.8955 2.19521 29.5965C2.00062 29.2974 2.08438 28.8954 2.38207 28.6993L4.2494 27.4759L2.37821 26.2563C2.07858 26.0634 1.99353 25.6627 2.18683 25.3617V25.363ZM7.04329 36.5358C7.57681 36.5358 8.00982 36.9708 8.00982 37.5068C8.00982 38.0427 7.5781 38.4777 7.04329 38.4777C6.50848 38.4777 6.07677 38.0427 6.07677 37.5068C6.07677 36.9708 6.50977 36.5358 7.04329 36.5358ZM10.265 16.4688C10.7986 16.4688 11.2316 16.9025 11.2316 17.4398C11.2316 17.9771 10.7998 18.4108 10.265 18.4108C9.73023 18.4108 9.29851 17.9771 9.29851 17.4398C9.29851 16.9025 9.73152 16.4688 10.265 16.4688ZM35.3946 36.5358C35.9282 36.5358 36.3612 36.9708 36.3612 37.5068C36.3612 38.0427 35.9295 38.4777 35.3946 38.4777C34.8598 38.4777 34.4281 38.0427 34.4281 37.5068C34.4281 36.9708 34.8611 36.5358 35.3946 36.5358ZM39.2607 29.4152C39.7943 29.4152 40.2273 29.8502 40.2273 30.3862C40.2273 30.9222 39.7955 31.3572 39.2607 31.3572C38.7259 31.3572 38.2942 30.9222 38.2942 30.3862C38.2942 29.8502 38.7272 29.4152 39.2607 29.4152Z" fill="#5CC773"/>
</svg>

<svg width="41" height="42" fill="none" xmlns="http://www.w3.org/2000/svg">
    <path fill-rule="evenodd" clip-rule="evenodd" d="m40.7 6.18-1.867 1.224 1.872 1.217a.649.649 0 0 1 .191.896.643.643 0 0 1-.891.191l-1.71-1.112v2.047a.646.646 0 0 1-.645.647.646.646 0 0 1-.645-.647V8.602l-1.7 1.116a.634.634 0 0 1-.893-.188.646.646 0 0 1 .187-.893l1.869-1.224-1.874-1.217a.644.644 0 1 1 .7-1.081l1.711 1.1V4.17c0-.358.288-.648.645-.648.355 0 .644.29.644.648v2.04l1.701-1.115a.643.643 0 0 1 .893.188.65.65 0 0 1-.187.897zm-6.272 13.525c0-.357.288-.647.645-.647.355 0 .644.29.644.647v1.414l1.188-.757c.3-.19.7-.101.89.201a.649.649 0 0 1-.2.893l-1.325.843 1.318.852a.647.647 0 0 1-.697 1.089l-1.174-.76v1.404a.645.645 0 1 1-1.289 0V23.47l-1.189.756a.641.641 0 0 1-.889-.2.65.65 0 0 1 .2-.894l1.325-.841-1.319-.853a.649.649 0 0 1-.193-.895.643.643 0 0 1 .891-.194l1.174.76v-1.404zm-3.544-4.53a.968.968 0 0 1-.966-.972.97.97 0 0 1 .966-.97.97.97 0 0 1 .967.97.967.967 0 0 1-.967.971zm-9.987 26.54c-4.627 0-8.377-3.768-8.377-8.416 0-2.974 1.547-5.57 3.866-7.065V4.17h.065c.316-2.193 2.176-3.884 4.446-3.884 2.27 0 4.13 1.69 4.446 3.884h.064v22.064c2.32 1.495 3.866 4.09 3.866 7.064 0 4.648-3.75 8.416-8.376 8.416zm3.866-14.38v-.51h-.645v-3.883H22.83a.645.645 0 0 1-.644-.647c0-.358.288-.648.644-.648h1.289v-2.589h-1.29a.645.645 0 0 1-.643-.647c0-.358.288-.648.644-.648h1.289v-2.589h-1.29a.646.646 0 0 1-.643-.647c0-.357.288-.647.644-.647h1.289v-2.59h-1.29a.646.646 0 0 1-.643-.647c0-.357.288-.647.644-.647h1.289v-2.59h-1.29a.645.645 0 0 1-.643-.647c0-.357.288-.647.644-.647h1.289V4.817a3.23 3.23 0 0 0-3.222-3.237 3.23 3.23 0 0 0-3.222 3.237v1.295h1.289c.355 0 .644.29.644.647a.646.646 0 0 1-.644.647h-1.289v2.59h1.289a.646.646 0 0 1 0 1.295h-1.289v2.588h1.289c.355 0 .644.29.644.648a.646.646 0 0 1-.644.647h-1.289v2.59h1.289c.355 0 .644.29.644.647a.646.646 0 0 1-.644.647h-1.289v2.59h1.289c.355 0 .644.289.644.647a.646.646 0 0 1-.644.647h-1.289v4.531h-.829A7.106 7.106 0 0 0 13.81 33.3c0 3.933 3.173 7.12 7.088 7.12 3.914 0 7.088-3.187 7.088-7.12a7.118 7.118 0 0 0-3.222-5.964zm-3.866 9.848A3.875 3.875 0 0 1 17.03 33.3c0-1.437.778-2.683 1.933-3.352v-3.121c0-1.072.865-1.942 1.933-1.942 1.067 0 1.933.87 1.933 1.942v3.121a3.866 3.866 0 0 1 1.933 3.352 3.875 3.875 0 0 1-3.866 3.884zm.644-6.38v-3.977a.645.645 0 1 0-1.289 0v3.976A2.58 2.58 0 0 0 18.32 33.3c0 1.43 1.154 2.59 2.578 2.59a2.583 2.583 0 0 0 2.577-2.59 2.58 2.58 0 0 0-1.933-2.497zm-9.784-20.498c-.332.484-.895.178-.895.178L9.8 9.82l.064.278a.645.645 0 1 1-1.258.279l-.341-1.528-.97-.608a2.05 2.05 0 0 1-.567.323V9.71l1.076 1.062a.66.66 0 0 1 0 .951.691.691 0 0 1-.966 0l-.11-.11v.984s-.038.622-.644.622-.644-.615-.644-.615v-.99l-.13.128a.691.691 0 0 1-.966 0 .672.672 0 0 1 0-.953l1.102-1.08V8.582a1.85 1.85 0 0 1-.548-.306l-1.05.67-.346 1.346a.661.661 0 0 1-.82.478.69.69 0 0 1-.49-.753l-.835.54s-.558.313-.898-.165c-.342-.479.174-.856.174-.856l1.256-.813-.457-.128a.699.699 0 0 1-.484-.841.667.667 0 0 1 .825-.476l1.65.46.792-.513a2.196 2.196 0 0 1-.058-.466c0-.15.025-.292.057-.434l-.831-.518-1.559.368a.662.662 0 0 1-.799-.505.694.694 0 0 1 .516-.818l.216-.052-1.16-.725s-.545-.345-.193-.854c.35-.511.896-.18.896-.18l1.085.675-.039-.178a.697.697 0 0 1 .517-.822.663.663 0 0 1 .801.51l.319 1.486.876.547c.169-.139.36-.25.57-.325V3.757l-.986-.992a.648.648 0 0 1 0-.915.638.638 0 0 1 .91 0l.075.075V.903s.008-.617.649-.617c.64 0 .647.616.647.616v1.025l.075-.077a.647.647 0 0 1 .915.916l-.986.997V4.94c.2.07.387.174.548.31l1.166-.757.303-1.126a.643.643 0 0 1 1.263.13l.805-.519s.542-.336.902.169c.357.504-.174.854-.174.854l-1.301.842.479.129a.648.648 0 0 1-.332 1.25l-1.61-.435h-.004l-.812.524c.036.151.061.305.061.466 0 .15-.02.296-.051.436l1.127.701 1.27-.285a.64.64 0 0 1 .766.488.65.65 0 0 1-.481.77l.928.576s.519.37.187.855l-.01-.014zm-5.68-4.193a.646.646 0 0 0-.645.647.645.645 0 1 0 1.29 0 .646.646 0 0 0-.645-.647zm-3.89 19.251a.642.642 0 0 1 .891-.191l1.71 1.111v-2.046a.645.645 0 1 1 1.289 0v2.041l1.7-1.116a.634.634 0 0 1 .893.187c.195.305.111.7-.187.894l-1.868 1.223 1.873 1.217a.644.644 0 1 1-.7 1.081l-1.711-1.106v2.052a.645.645 0 1 1-1.289 0v-2.04l-1.701 1.114a.644.644 0 0 1-.892-.188.651.651 0 0 1 .187-.897l1.867-1.223-1.87-1.22a.647.647 0 0 1-.192-.894v.001zm4.856 11.173a.97.97 0 0 1 .967.97c0 .537-.432.972-.967.972a.968.968 0 0 1-.966-.971.97.97 0 0 1 .966-.971zm3.222-20.067c.534 0 .967.433.967.97a.968.968 0 1 1-1.933 0c0-.537.433-.97.966-.97zm25.13 20.067a.97.97 0 0 1 .966.97c0 .537-.431.972-.966.972a.968.968 0 0 1-.967-.971.97.97 0 0 1 .967-.971zm3.866-7.12a.97.97 0 0 1 .966.97.968.968 0 0 1-.966.971.968.968 0 0 1-.967-.97.97.97 0 0 1 .967-.972z" fill="#5CC773"/>
</svg>
